X: 1298
T: Kürdîlihicazkâr Peşrev
C: Tanburî Cemil Bey
O: Turkey
F: http://compmusic.upf.edu/node/140
N: kurdilihicazkar--pesrev--muhammes----tanburi_cemil_bey
N: makam= kurdilihicazkar
N: form= pesrev
N: usul= muhammes = 32/4
M: 32/4
L: 1/16
K: C _B _e _A 
Q: 1/4=72
%%MIDI tuningsystem comma53
c4-c b a g {a}g8  | f2 g2 f2 e2 f4 g4  | \
w:  1. HANE  |   | 
f e d c f2 g2 f2 c'2 b2 a2  | 
w:   | 
a2 g4 f2 f2 {g}f e g2 {a}g f  | a2 {b}a g f2 g2 f4 e2 f2  | \
w:   |   | 
g2 e2 f2 g2 a3/2 g/ a b a g f2  | 
w:   | 
g3 f e2 f2 e4 f2 g2  | f2 {g}e2 d g f e {f}e4 z e d c  | \
w:   |   | 
B2 c d e2 d2 e2 {f}e d e2 g2  | 
w:   | 
f2 e2 d2 c2 B2 {c}B A G2 d/ e/ f/ g/  | \
w:   | 
a2 {b}a g .f4 g2 {a}g f .e4  | f2 {g}f e d4 e3 d c _1/4B c d  | 
w:   |   | 
c4 d8 c2 d2  | d2 _2/4e2 f2 g2 f2 _e2 d2 c2  | \
w:   |   | 
c B c d B2 A2 G2 F3 e d c  | 
w:   | 
c6 f2 _2/4e2 f2 g4  | b3/2 =a/ g f _2/4e d c d e f g a b a g a  | 
w:   |  TESLİM  | 
f2 g4 g f f e2 d d4  | e3/2 d/ c2 d2 e2 g3 f f3 e  | \
w:   |   | 
e3 d d3 c c e d c {d}c4  | 
w:   | 
B2 c4 B2 c2 d2 e2 g f  | e d c d B2 c2 B2 A2 G2 F2  | \
w:   |   | 
z2 g f e d {e}c2 B3 A B A A G  | 
w:   | 
G6 d e d c _1/4B c d4  | d d2 e f2 g2 f2 _2/4e f d2 c2  | \
w:  2. HANEYE  |  2. HANE  | 
B3 A G4 f3 _3/4e d4  | 
w:   | 
z4 e2 d2 e2 g2 f2 e2  | e2 d4 c2 c2 {d}c B f e d c  | \
w:   |   | 
B4 c2 d2 f2 e4 e d  | 
w:   | 
d2 {e}d c c2 {d}c B A2 {B}A G F4  | \
w:   | 
z2 d2 c d c B B3 A G B A G  | 
w:   | 
G6 F2 d c B c d4  | G2 {A}G F c2 _1/4B c d8  | \
w:   |   | 
d2 {e}d c g f _2/4e f g4 z4  | 
w:   | 
f2 g4 f _2/4e f3 e b2 _1/4a2  | g2 f2 e2 d2 e3/2 d/ e f e d c2  | \
w:   |   | 
B2 c4 B2 c4 d2 e2  | 
w:   | 
g4 f2 _3/4e2 d4 c2 d2  | B2 {d}c2 B2 A2 G2 F2 z e d c  | \
w:   |   | 
c4 z f _2/4e f g4 =A/ B/ c/ d/ _e/ f/ g/ =a/  | 
w:   | 
b3/2 =a/ g f _2/4e d c d e f g a b a g a  | \
w:  TESLİM  | 
f2 g4 g f f e2 d d4  | 
w:   | 
e3/2 d/ c2 d2 e2 g3 f f3 e  | e3 d d3 c c e d c {d}c4  | \
w:   |   | 
B2 c4 B2 c2 d2 e2 g f  | 
w:   | 
e d c d B2 c2 B2 A2 G2 F2  | z2 g f e d {e}c2 B3 A B A A G  | 
w:   |   | 
G6 b2 =a2 c'2 b4  | =a2 a b c'2 d'2 c'2 b2 a2 g2  | \
w:  3. HANEYE  |  3. HANE  | 
f4 c'2 b =a b8  | b2 =a2 b2 c'2 b2 c'2 b2 a2  | 
w:   |   | 
=a2 _3/4g4 f2 {c'}b a g f _3/4e4  | \
w:   | 
d4 _3/4e4 e2 _3/4g2 f2 e2  | _3/4e2 d4 c2 d2 {_e}d c B4  | 
w:   |   | 
(3f=ef g4 f e e _3/4d2 c c B2 =A  | \
w:   | 
B6 (3.c'.b.c' d'6 z2  | c'4 d'4 c'2 e'2 d'2 c'2  | 
w:   |   | 
c'2 b4 =a2 a g g ^f g4  | ^f2 g2 =a2 b2 d'2 c'2 b2 a2  | \
w:   |   | 
=a2 g2 g2 ^f2 {g}f _7/8e e d e4  | 
w:   | 
c4 d4 d2 e2 d2 c2  | d2 b2 =a2 g2 ^f3 e d2 d'2  | \
w:   |   | 
c'2 b2 =a2 g2 ^f3 _7/8e f e e d  | 
w:   | 
d6 c2 g f _2/4e f g4  | b3/2 =a/ g f _2/4e d c d e f g a b a g a  | 
w:   |  TESLİM  | 
f2 g4 g f f e2 d d4  | e3/2 d/ c2 d2 e2 g3 f f3 e  | \
w:   |   | 
e3 d d3 c c e d c {d}c4  | 
w:   | 
B2 c4 B2 c2 d2 e2 g f  | e d c d B2 c2 B2 A2 G2 F2  | \
w:   |   | 
z2 g f e d {e}c2 B3 A B A A G  | 
w:   | 
G6 f2 g8  | a g f _2/4e d e f g {b}=a2 g2 f b _a g  | g16  | g16  | \
w:  4. HANEYE  |  4. HANE  |   |   | 
(3b2=a2g2 (3f2_2/4e2d2 (3c2d2e2 (3f2g2a2  | 
w:   | 
c'2 b4 =a g g8  | =a4 {d}a c' b a (3g2f2_3/4e2 f2 g2  | \
w:   |   | 
=a2 b2 (3a2g2a2 g2 {a}f2 _2/4e a g f  | 
w:   | 
f14 (3_2/4ede  | _2/4e d c _2/4B e2 f2 g2 =a2 b2 a2  | \
w:   |   | 
g2 f2 _2/4e2 b2 =a2 g2 f2 e2  | 
w:   | 
f2 _2/4e2 f2 e2 f2 e2 f2 g2  | =a g f _2/4e _3/4e d e d {e}d8  | \
w:   |   | 
c'2 d'6 d' f' e' d' c' b =a2  | 
w:   | 
=a6 g2 c' _1/4b _7/8a g f4  | _2/4e f g4 f e _7/8e3 d d f _e d  | \
w:   |   | 
d6 c2 g f _2/4e f g4  | 
w:   | 
b3/2 =a/ g f _2/4e d c d e f g a b a g a  | \
w:  TESLİM  | 
f2 g4 g f f e2 d d4  | 
w:   | 
e3/2 d/ c2 d2 e2 g3 f f3 e  | e3 d d3 c c e d c {d}c4  | \
w:   |   | 
B2 c4 B2 c2 d2 e2 g f  | 
w:   | 
e d c d B2 c2 B2 A2 G2 F2  | z2 g f e d {e}c2 B3 A B A A G  | 
w:   |   | 
G8 z8  | |


